assets/images/page/contact/icons/yt.svg

<svg width="25" height="19" viewBox="0 0 25 19" fill="none" xmlns="http://www.w3.org/2000/svg">
<path d="M15.7957 8.77084L10.4587 5.85065C10.1518 5.68275 9.7891 5.68901 9.48831 5.86724C9.18733 6.04565 9.00781 6.36082 9.00781 6.71064V12.5009C9.00781 12.849 9.18622 13.1637 9.48517 13.3422C9.64128 13.4355 9.81435 13.4823 9.98778 13.4823C10.1467 13.4823 10.3059 13.4431 10.4524 13.3642L15.7896 10.4943C16.1065 10.3238 16.3042 9.99446 16.3057 9.63451C16.307 9.27455 16.1116 8.94372 15.7957 8.77084ZM10.4235 11.7725V7.44492L14.4123 9.6275L10.4235 11.7725Z" fill="#00003F"/>
<path d="M23.98 5.02117L23.9789 5.01011C23.9585 4.81567 23.7548 3.08612 22.914 2.20641C21.9421 1.1717 20.8403 1.046 20.3104 0.985735C20.2666 0.980759 20.2264 0.976151 20.1905 0.971359L20.1483 0.966935C16.9546 0.734706 12.1314 0.703005 12.0831 0.702821L12.0789 0.702637L12.0746 0.702821C12.0263 0.703005 7.20315 0.734706 3.9807 0.966935L3.93812 0.971359C3.90384 0.975967 3.86606 0.980206 3.82496 0.984998C3.30115 1.04545 2.21115 1.17133 1.23653 2.24346C0.435706 3.11376 0.204214 4.80627 0.180438 4.99648L0.177674 5.02117C0.170485 5.10209 0 7.0283 0 8.96206V10.7698C0 12.7035 0.170485 14.6297 0.177674 14.7108L0.178964 14.723C0.199422 14.9143 0.402899 16.6122 1.23984 17.4922C2.15365 18.4923 3.30908 18.6246 3.93057 18.6958C4.0288 18.707 4.1134 18.7166 4.17109 18.7267L4.22693 18.7345C6.07094 18.9099 11.8525 18.9964 12.0977 18.9999L12.105 19.0001L12.1124 18.9999C12.1607 18.9997 16.9837 18.968 20.1774 18.7358L20.2196 18.7313C20.2599 18.726 20.3053 18.7212 20.355 18.716C20.8759 18.6608 21.96 18.5459 22.9212 17.4884C23.722 16.6179 23.9537 14.9254 23.9773 14.7353L23.98 14.7106C23.9872 14.6296 24.1579 12.7035 24.1579 10.7698V8.96206C24.1577 7.0283 23.9872 5.10227 23.98 5.02117ZM22.742 10.7698C22.742 12.5596 22.5857 14.4029 22.571 14.572C22.5109 15.0382 22.2667 16.109 21.8765 16.5331C21.2749 17.1949 20.6569 17.2606 20.2058 17.3083C20.1512 17.314 20.1007 17.3195 20.055 17.3253C16.966 17.5486 12.3249 17.5829 12.1111 17.5842C11.8713 17.5807 6.17434 17.4935 4.38655 17.3275C4.29494 17.3125 4.19597 17.3011 4.09165 17.2893C3.5625 17.2287 2.83817 17.1457 2.28119 16.5331L2.2681 16.5191C1.88474 16.1197 1.64754 15.1183 1.58727 14.5776C1.57602 14.4497 1.41567 12.5846 1.41567 10.7698V8.96206C1.41567 7.17427 1.5716 5.33302 1.58671 5.16033C1.65841 4.61127 1.90723 3.60531 2.28119 3.19873C2.9012 2.51679 3.55495 2.44122 3.98733 2.39127C4.02862 2.38648 4.06714 2.38206 4.10271 2.37745C7.2367 2.15296 11.9111 2.1196 12.0789 2.11831C12.2466 2.11942 16.9194 2.15296 20.0255 2.37745C20.0637 2.38224 20.1053 2.38703 20.1501 2.39219C20.5948 2.44288 21.267 2.51955 21.8839 3.17753L21.8896 3.18362C22.273 3.58301 22.5102 4.60187 22.5704 5.15351C22.5811 5.27423 22.742 7.1433 22.742 8.96206V10.7698Z" fill="#00003F"/>
</svg>

<svg width="25" height="19" fill="none" xmlns="http://www.w3.org/2000/svg"><path d="m15.796 8.77-5.337-2.92a.972.972 0 0 0-.97.017.972.972 0 0 0-.481.844v5.79a.97.97 0 0 0 .477.841.978.978 0 0 0 .967.022l5.338-2.87a.98.98 0 0 0 .006-1.723Zm-5.372 3.003V7.445l3.988 2.182-3.989 2.146Z" fill="#00003F"/><path d="m23.98 5.021-.001-.01c-.02-.195-.224-1.925-1.065-2.805-.972-1.034-2.074-1.16-2.604-1.22a6.4 6.4 0 0 1-.12-.015l-.042-.004C16.955.735 12.131.703 12.083.703h-.008c-.049 0-4.872.032-8.094.264L3.938.97c-.034.005-.072.01-.113.014-.524.06-1.614.186-2.588 1.258C.436 3.113.204 4.806.18 4.996l-.002.025A49.645 49.645 0 0 0 0 8.962v1.808c0 1.934.17 3.86.178 3.94l.001.013c.02.191.224 1.89 1.06 2.77.915 1 2.07 1.132 2.692 1.203.098.011.182.02.24.03l.056.009c1.844.175 7.625.261 7.87.265h.015c.049 0 4.872-.032 8.065-.264l.043-.005.135-.015c.52-.055 1.605-.17 2.566-1.228.801-.87 1.033-2.563 1.056-2.753l.003-.024c.007-.081.178-2.008.178-3.941V8.962c0-1.934-.17-3.86-.178-3.94Zm-1.238 5.749c0 1.79-.156 3.633-.171 3.802-.06.466-.304 1.537-.695 1.961-.601.662-1.22.728-1.67.775a6.989 6.989 0 0 0-.151.017c-3.089.224-7.73.258-7.944.26-.24-.004-5.937-.091-7.724-.258a6.128 6.128 0 0 0-.295-.038c-.53-.06-1.254-.143-1.81-.756l-.014-.014c-.383-.4-.62-1.4-.68-1.941a49.466 49.466 0 0 1-.172-3.808V8.962c0-1.788.156-3.629.17-3.802.072-.549.321-1.555.695-1.961.62-.682 1.274-.758 1.706-.808l.116-.014c3.134-.224 7.808-.257 7.976-.259.168.001 4.84.035 7.947.26l.124.014c.445.05 1.117.128 1.734.786l.006.006c.383.399.62 1.418.68 1.97.011.12.172 1.99.172 3.808v1.808Z" fill="#00003F"/></svg>
